epam-assets/icon-sources/18/internal-logo/vacation.svg

<svg width="18" height="18" viewBox="0 0 18 18" fill="none" xmlns="http://www.w3.org/2000/svg">
<g id="18/internal-logo/vacation">
<path id="icon" d="M9 13.9138C9.4285 13.9138 9.77586 14.2612 9.77586 14.6897V15.7241C9.77586 16.1526 9.4285 16.5 9 16.5C8.5715 16.5 8.22414 16.1526 8.22414 15.7241V14.6897C8.22414 14.2612 8.5715 13.9138 9 13.9138ZM5.52542 12.4746C5.82842 12.7776 5.82842 13.2688 5.52542 13.5718L4.79393 14.3033C4.49094 14.6063 3.99969 14.6063 3.6967 14.3033C3.39371 14.0003 3.39371 13.5091 3.6967 13.2061L4.42819 12.4746C4.73118 12.1716 5.22243 12.1716 5.52542 12.4746ZM13.5718 12.4746L14.3033 13.2061C14.6063 13.5091 14.6063 14.0003 14.3033 14.3033C14.0003 14.6063 13.5091 14.6063 13.2061 14.3033L12.4746 13.5718C12.1716 13.2688 12.1716 12.7776 12.4746 12.4746C12.7776 12.1716 13.2688 12.1716 13.5718 12.4746ZM9 5.63793C10.8568 5.63793 12.3621 7.14318 12.3621 9C12.3621 10.8568 10.8568 12.3621 9 12.3621C7.14318 12.3621 5.63793 10.8568 5.63793 9C5.63793 7.14318 7.14318 5.63793 9 5.63793ZM9 7.18965C8.00017 7.18965 7.18965 8.00017 7.18965 9C7.18965 9.99983 8.00017 10.8103 9 10.8103C9.99983 10.8103 10.8103 9.99983 10.8103 9C10.8103 8.00017 9.99983 7.18965 9 7.18965ZM3.31034 8.22414C3.73884 8.22414 4.08621 8.5715 4.08621 9C4.08621 9.4285 3.73884 9.77586 3.31034 9.77586H2.27586C1.84737 9.77586 1.5 9.4285 1.5 9C1.5 8.5715 1.84737 8.22414 2.27586 8.22414H3.31034ZM15.7241 8.22414C16.1526 8.22414 16.5 8.5715 16.5 9C16.5 9.4285 16.1526 9.77586 15.7241 9.77586H14.6897C14.2612 9.77586 13.9138 9.4285 13.9138 9C13.9138 8.5715 14.2612 8.22414 14.6897 8.22414H15.7241ZM4.79393 3.6967L5.52542 4.42819C5.82842 4.73118 5.82842 5.22243 5.52542 5.52542C5.22243 5.82842 4.73118 5.82842 4.42819 5.52542L3.6967 4.79393C3.39371 4.49094 3.39371 3.99969 3.6967 3.6967C3.99969 3.39371 4.49094 3.39371 4.79393 3.6967ZM14.3033 3.6967C14.6063 3.99969 14.6063 4.49094 14.3033 4.79393L13.5718 5.52542C13.2688 5.82842 12.7776 5.82842 12.4746 5.52542C12.1716 5.22243 12.1716 4.73118 12.4746 4.42819L13.2061 3.6967C13.5091 3.39371 14.0003 3.39371 14.3033 3.6967ZM9 1.5C9.4285 1.5 9.77586 1.84737 9.77586 2.27586V3.31034C9.77586 3.73884 9.4285 4.08621 9 4.08621C8.5715 4.08621 8.22414 3.73884 8.22414 3.31034V2.27586C8.22414 1.84737 8.5715 1.5 9 1.5Z" fill="#6C6F80"/>
</g>
</svg>

<svg xmlns="http://www.w3.org/2000/svg" width="18" height="18" fill="none" viewBox="0 0 18 18">
  <path fill="#6C6F80" d="M9 13.914c.428 0 .776.347.776.776v1.034a.776.776 0 1 1-1.552 0V14.69c0-.429.348-.776.776-.776Zm-3.475-1.44a.776.776 0 0 1 0 1.098l-.731.731a.776.776 0 1 1-1.097-1.097l.731-.731a.776.776 0 0 1 1.097 0Zm8.047 0 .731.732a.776.776 0 1 1-1.097 1.097l-.731-.731a.776.776 0 1 1 1.097-1.097ZM9 5.639a3.362 3.362 0 1 1 0 6.724 3.362 3.362 0 0 1 0-6.724ZM9 7.19a1.81 1.81 0 1 0 0 3.62 1.81 1.81 0 0 0 0-3.62ZM3.31 8.224a.776.776 0 1 1 0 1.552H2.276a.776.776 0 0 1 0-1.552H3.31Zm12.414 0a.776.776 0 1 1 0 1.552H14.69a.776.776 0 1 1 0-1.552h1.034ZM4.794 3.697l.731.731a.776.776 0 1 1-1.097 1.097l-.731-.731a.776.776 0 0 1 1.097-1.097Zm9.51 0a.776.776 0 0 1 0 1.097l-.732.731a.776.776 0 1 1-1.097-1.097l.731-.731a.776.776 0 0 1 1.097 0ZM9 1.5c.428 0 .776.347.776.776V3.31a.776.776 0 1 1-1.552 0V2.276c0-.429.348-.776.776-.776Z"/>
</svg>
